X: 1
T: Waiting For Sandy
C: Jane Rothfield
R: march
S: Fiddle Hell Online 2020-11-05
Z: 2020 John Chambers <jc:trillian.mit.edu>
M: C
L: 1/8
K: D
|:\
"D"A2B2 d2e2 | f2f2 edB2 | A2B2 d2e2 | f2f2 edB2 |\
"A"e4 e3f | g2f2 edB2 | "G"B4 B3d | g2f2 edB2 :|
|:\
"D"FGAc d4 | F2G2 FDD2 | "(Bm)"FGAc d4 | F2A2 d4 |\
"Em"FGAc d4 | FEFG FDD2 | "A"E4 F4 | G4 E4 :|
